public/assets/github.svg

<svg width="29" height="30" viewBox="0 0 29 30" fill="none" xmlns="http://www.w3.org/2000/svg">
<g clip-path="url(#clip0)">
<path d="M14.2132 0.944336C6.42963 0.944336 0.0511169 7.37817 0.0511169 15.1617C0.0511169 22.9001 6.3715 29.2685 14.2132 29.2685C22.0452 29.2685 28.3753 22.9096 28.3753 15.1617C28.3753 7.37817 21.9968 0.944336 14.2132 0.944336ZM16.7026 27.3599C15.9061 27.5259 15.0596 27.6089 14.2132 27.6089C13.3667 27.6089 12.5203 27.5259 11.7238 27.3599V23.4765C11.7238 22.547 11.9727 22.2151 12.3046 21.7669C12.4736 21.5737 12.5756 21.4004 13.3335 20.2568L12.0557 20.0576C8.76952 19.5764 7.4751 17.8668 6.96058 16.5391C6.29673 14.7635 6.64529 12.5394 7.8403 11.1289C8.0229 10.9131 8.17223 10.5479 8.03954 10.1662C7.79038 9.40277 7.82366 8.19134 7.98963 7.72651C8.86957 7.85228 9.77436 8.48263 10.529 8.93817C10.8767 9.14108 11.0591 9.08749 11.2259 9.10413C11.8322 8.97793 12.7781 8.67258 14.2298 8.67258C15.126 8.67258 16.0721 8.80527 17.0015 9.07085C17.1677 9.06696 17.4348 9.20829 17.8976 8.93817C18.6864 8.45757 19.5605 7.84882 20.4368 7.72651C20.6027 8.19134 20.636 9.40277 20.3871 10.1662C20.2542 10.5479 20.4035 10.9131 20.5863 11.1289C21.7811 12.5396 22.1297 14.7635 21.4658 16.5391C20.9513 17.8668 19.6569 19.5764 16.3707 20.0576L15.0929 20.2568C15.8763 21.4389 15.9588 21.5807 16.122 21.7669C16.4537 22.2151 16.7026 22.547 16.7026 23.4765V27.3599ZM18.3622 26.8787V23.4765C18.3622 22.5304 18.163 21.8998 17.8974 21.435C20.4201 20.7547 22.2126 19.2609 23.0092 17.12C23.8556 14.8631 23.474 12.1744 22.0631 10.3156C22.3123 9.20375 22.3123 7.42787 21.7148 6.59806C21.4492 6.23307 21.084 6.03383 20.6194 6.03383C20.6027 6.03383 20.6027 6.03383 20.6027 6.03383C19.3159 6.10342 18.303 6.75149 17.2171 7.41123C16.2214 7.14565 15.209 7.01296 14.1966 7.01296C13.1677 7.01296 12.1387 7.16229 11.2261 7.41123C10.0829 6.72188 9.07983 6.10169 7.75732 6.03383C7.34242 6.03383 6.97721 6.23307 6.71163 6.59806C6.11434 7.42787 6.11434 9.20375 6.36329 10.3156C4.95239 12.1744 4.57077 14.8795 5.41722 17.12C6.21375 19.2609 8.00626 20.7547 10.529 21.435C10.323 21.7952 10.1601 22.2601 10.0959 22.8891C9.58636 23.0648 9.14444 23.1221 8.73343 23.0013C8.29994 22.8731 7.96218 22.5838 7.66872 22.0902C7.00963 20.9829 5.88701 20.079 4.6088 20.1966L4.75467 21.8497C5.34655 21.7955 5.93563 22.4217 6.24162 22.938C6.74642 23.7881 7.42648 24.3456 8.26342 24.5928C8.8847 24.7759 9.4526 24.7715 10.0641 24.641V26.8787C5.23462 25.1858 1.71074 20.5721 1.71074 15.1617C1.71074 8.29096 7.34242 2.60395 14.2132 2.60395C21.084 2.60395 26.7157 8.29096 26.7157 15.1617C26.7157 20.5721 23.1918 25.1858 18.3622 26.8787Z" fill="#F87E0F"/>
</g>
<defs>
<clipPath id="clip0">
<rect width="28.3242" height="28.3242" fill="white" transform="translate(0.0511169 0.944336)"/>
</clipPath>
</defs>
</svg>

<svg width="29" height="30" fill="none" xmlns="http://www.w3.org/2000/svg"><g clip-path="url(#clip0)"><path d="M14.213.944C6.43.944.051 7.378.051 15.162c0 7.738 6.32 14.106 14.162 14.106 7.832 0 14.162-6.358 14.162-14.106 0-7.784-6.378-14.218-14.162-14.218zm2.49 26.416c-.797.166-1.643.249-2.49.249-.846 0-1.693-.083-2.49-.25v-3.883c0-.929.25-1.26.582-1.71.169-.192.27-.366 1.029-1.51l-1.278-.198c-3.286-.482-4.58-2.191-5.095-3.519-.664-1.776-.316-4 .88-5.41.182-.216.331-.581.199-.963-.25-.763-.216-1.975-.05-2.44.88.126 1.784.757 2.539 1.212.348.203.53.15.697.166.606-.126 1.552-.431 3.004-.431.896 0 1.842.132 2.771.398.167-.004.434.137.897-.133.788-.48 1.663-1.09 2.539-1.211.166.464.199 1.676-.05 2.44-.133.38.017.746.2.962 1.194 1.41 1.543 3.635.879 5.41-.515 1.328-1.81 3.037-5.095 3.519l-1.278.199c.783 1.182.866 1.324 1.029 1.51.332.448.58.78.58 1.71v3.883zm1.66-.481v-3.402c0-.947-.2-1.577-.466-2.042 2.523-.68 4.316-2.174 5.112-4.315.847-2.257.465-4.946-.946-6.804.25-1.112.25-2.888-.348-3.718a1.296 1.296 0 00-1.096-.564h-.016c-1.287.07-2.3.717-3.386 1.377a11.464 11.464 0 00-5.991 0c-1.143-.69-2.146-1.31-3.469-1.377-.415 0-.78.2-1.045.564-.598.83-.598 2.606-.349 3.718-1.41 1.858-1.792 4.563-.946 6.804.797 2.14 2.59 3.635 5.112 4.315-.206.36-.369.825-.433 1.454-.51.176-.952.233-1.363.112-.433-.128-.77-.417-1.064-.91-.66-1.108-1.782-2.012-3.06-1.894l.146 1.653c.592-.055 1.18.572 1.487 1.088.504.85 1.184 1.408 2.021 1.655.622.183 1.19.178 1.801.048v2.238c-4.83-1.693-8.353-6.307-8.353-11.717 0-6.871 5.631-12.558 12.502-12.558s12.503 5.687 12.503 12.558c0 5.41-3.524 10.024-8.354 11.717z" fill="#F87E0F"/></g><defs><clipPath id="clip0"><path fill="#fff" transform="translate(.051 .944)" d="M0 0h28.324v28.324H0z"/></clipPath></defs></svg>
